X:1419
T:Sergt. Early's Dream
M:C|
L:1/8
N:"collected by McFadden"
B:O'Neill's 1419
Z:"Transcribed by Bob Safranek, rjs@gsp.org"
K:A
gf|eAAB  dcBce|dBGA BcdB|AEAB     cBcd|eaab  c'bag|
eAAB     cege|dBGA BcdB|AEAf     gbge|dcBe  A2||
cd|eabag  a2 ag|eaab c'bag|egagf Tgfga|bc'bg aged|
eabag  agag|eaab c'bag|gbaf     gedB|cABe  A2|]
